!!!OTL: 39. Skotshne
!!!Genre:	Skotshne
!!!Mode:	Minor
!!!Listening/dance:	listening
!!!One_Mode:	yes
**kern
*I"P1
*clefG2
*k[b-e-]
*g:
*M2/4
*>A
=1
16ccLL
16dd
16ee-
16ddJJ
8.ee-L
16ddJk
=2
(16ddLL
16ffJ)
8ccJ
8ccL
8ccJ
=3
16ccLL
16dd
16ee-
16ddJJ
8.ee-L
16ddJk
=4
(16ddLL
16ffJ)
8ccJ
8ccL
8ccJ
=5
16ccLL
16dd
16ee-
16ccJJ
16ddLL
16ee-
16ff
16ddJJ
=6
16ee-LL
16ff
16gg
16ee-JJ
8.ddL
16ccJk
=7
16b-LL
16a
16g
16aJJ
8b-L
8ccJ
=8
2g
=9||
*>B
8ee-L
8cc
8ee-
8ccJ
=10
8ee-L
8ccJ
16b-LL
16a-XJ
8gJ
=11
8ccL
8ccJ
16ccLL
16dd
16ee-
16ccJJ
=12
2ee-
=13
8ee-L
8cc
8ee-
8ccJ
=14
8ee-L
8ccJ
16b-LL
16a-XJ
8gJ
=15
8ccL
8ccJ
16ccLL
16dd
16ee-
16ccJJ
=16
2b-
=17||
*>C
8b-L
8ggJ
4ee-
=18
16ddLL
16cc
16b-
16ddJJ
4cc
=19
16b-LL
16a
16g
16aJJ
8b-L
8ccJ
=20
8gL
8a
8b-
8gJ
=21
8b-L
8ggJ
4ee-
=22
16ddLL
16cc
16b-
16ddJJ
4cc
=23
16b-LL
16a
16g
16aJJ
8b-L
8ccJ
=24
2g
==
*-
